packages/ndla-icons/svg/common/ArrowFeatureTips.svg

<svg width="34" height="31" viewBox="0 0 34 31" fill="none" xmlns="http://www.w3.org/2000/svg" data-license="CC-BY 4.0" data-source="Sopra Steria">
<path d="M32.5403 0.803438L32.7368 0.343695L33.6563 0.736819L33.4597 1.19656L32.5403 0.803438ZM-1.84774e-06 29L4.06458 24.8997L5.58326 30.4699L-1.84774e-06 29ZM33 1C33.4597 1.19656 33.4597 1.19669 33.4596 1.19687C33.4596 1.197 33.4595 1.19723 33.4593 1.19748C33.4591 1.19799 33.4588 1.19869 33.4584 1.19959C33.4577 1.20139 33.4566 1.20397 33.4551 1.20733C33.4522 1.21405 33.448 1.22387 33.4424 1.23672C33.4312 1.26242 33.4147 1.30024 33.3929 1.34957C33.3493 1.44824 33.2847 1.59299 33.1996 1.77904C33.0294 2.15111 32.7776 2.68848 32.4494 3.35282C31.7933 4.68116 30.8312 6.51891 29.6062 8.5588C27.1625 12.6282 23.6473 17.5452 19.3988 20.809L18.7896 20.016C22.8889 16.8668 26.3267 12.0776 28.7489 8.04398C29.9569 6.03237 30.906 4.21942 31.5528 2.90994C31.8762 2.25537 32.1238 1.72705 32.2902 1.36316C32.3734 1.18122 32.4363 1.04043 32.4782 0.94554C32.4991 0.898098 32.5148 0.862136 32.5252 0.838253C32.5304 0.826311 32.5343 0.817389 32.5368 0.811562C32.538 0.808648 32.5389 0.806508 32.5395 0.805151C32.5398 0.804472 32.54 0.80399 32.5401 0.803704C32.5402 0.803561 32.5402 0.803494 32.5403 0.803423C32.5403 0.803406 32.5403 0.803438 33 1ZM19.3988 20.809C14.3348 24.6991 8.41459 27.0409 4.49279 28.2928L4.1887 27.3402C8.0597 26.1045 13.8563 23.8057 18.7896 20.016L19.3988 20.809Z" fill="#757575"/>
</svg>

<svg xmlns="http://www.w3.org/2000/svg" fill="none" data-license="CC-BY 4.0" data-source="Sopra Steria" viewBox="0 0 34 31">
  <path fill="#757575" d="m32.5.8.2-.5 1 .4-.2.5-1-.4ZM0 29l4-4.1 1.6 5.6L0 29ZM33 1a68.9 68.9 0 0 1 .5.2 23 23 0 0 1-1 2.2l-2.9 5.2c-2.4 4-6 9-10.2 12.2l-.6-.8a44 44 0 0 0 10-12A72.2 72.2 0 0 0 32.4.8l.5.2ZM19.4 20.8c-5 3.9-11 6.2-15 7.5l-.2-1c3.9-1.2 9.7-3.5 14.6-7.3l.6.8Z"/>
</svg>
